maif.svg

<svg xmlns="http://www.w3.org/2000/svg" width="48" height="48"><g fill="none" fill-rule="evenodd"><rect width="48" height="48" fill="#007759" rx="4"/><path fill="#E30613" d="M7.5 35.5L24 5.5l16.5 30z"/><path fill="#FFF" d="M6 29.5v-8h3.5l2.5 5 2.5-5H18v8h-3v-6l-3 6h-1.5l-3-6v6H6zm12.5 0l3.5-8h3l3.5 8h-3L25 28h-4l-.65 1.5H18.5zm3-3h3l-1.5-3-1.5 3zm8-5H32v8h-2.5v-8zm4.5 0h8V23h-5.5v2.5H42V27h-5.5v2.5H34v-8z"/></g></svg>

<svg xmlns="http://www.w3.org/2000/svg" width="48" height="48" viewBox="0 0 48 48">
  <g fill="none" fill-rule="evenodd">
    <rect width="48" height="48" fill="#007759" rx="4"/>
    <polygon fill="#E30613" points="7.5 35.5 24 5.5 40.5 35.5"/>
    <path fill="#FFFFFF" d="M6,29.5 L6,21.5 L9.5,21.5 L12,26.5 L14.5,21.5 L18,21.5 L18,29.5 L15,29.5 L15,23.5 L12,29.5 L10.5,29.5 L7.5,23.5 L7.5,29.5 L6,29.5 Z M18.5,29.5 L22,21.5 L25,21.5 L28.5,29.5 L25.5,29.5 L25,28 L21,28 L20.3499756,29.5 L18.5,29.5 Z M21.5,26.5 L24.5,26.5 L23,23.5 L21.5,26.5 Z M29.5,21.5 L32,21.5 L32,29.5 L29.5,29.5 L29.5,21.5 Z M34,21.5 L42,21.5 L42,23 L36.5,23 L36.5,25.5 L42,25.5 L42,27 L36.5,27 L36.5,29.5 L34,29.5 L34,21.5 Z"/>
  </g>
</svg>
